F[BALLADE
CUT[Die Koenigstochter
    Stander op, stander op, mine Sonner syv,]
CNR[og giv Eders Fader Vin!]
REG[Nordeuropa, Daenemark, Nornissom]
SRC[2, S. 65
    1810 aufgezeichnet]
KEY[Q2040  16  E 6/8]
MEL[55  5__445__55  4_2_3b_1__
    1_  5_.4222_3b_4_  5__.0__
    4_  5_6b_4_5_6b_4_  5_6_7_+1__
    3b_  2_6b_5_5_4_3b_  1__.0__ //] >>
FCT[Ballade, Betrug, Ehe, Tod]
CMT[Daenische Fassung der Ballade.]
